X: 12400
T: Fantomenland
R: slip jig
M: 9/8
K: Dminor
A2d A2G F2E|D3 D2C D2F|E3 E2C E2G|F2G A2B A2G|
A2d A2G F2E|D3 D2C D2F|E3 E2D C3|(D6 D3):|
E3 E2C E2G|F3 F2D F2A|G3 G2E G2B|A2d A2G F2D|
E3 E2C E2G|F3 F2D F2A|G2A B3 d3|^c2d e3 A3|
f2e d3 A3|c2B A3 G3|F2E D3 F3|EDC D6||

